X: 39557
T: Teahan's Favourite
R: slide
M: 12/8
K: Edorian
|:B|{d/}e3 B2 A GFE B2 E|FED A2 D d2 D A2 d|
efe B2 A GFE B2 A|FED F2 A F2 E E2:|
d|B2 e e^de f2 a afa|baf a2 f e2 d B2 ^A|
B2 e e^de f2 a a3|baf a2 f e3 e2 d|
B2 e e3 f2 a a3|baf a2 f e2 d B3|
faf f2 e dcd B2 A|FED F2 A F2 E E2||

